packages/icons/svg/multicolor/geniet-moneypouch.svg

<svg width="24" height="24" viewBox="-1.89 -1.86 27.77 27.77" fill="none" xmlns="http://www.w3.org/2000/svg">
<mask id="mask0_3062_8852" style="mask-type:luminance" maskUnits="userSpaceOnUse" x="3" y="0" width="18" height="6">
<path d="M3.66992 0.5H20.3274V5.62742H3.66992V0.5Z" fill="white"/>
</mask>
<g mask="url(#mask0_3062_8852)">
<path fill-rule="evenodd" clip-rule="evenodd" d="M15.9393 0.916464C15.2138 0.361179 14.0376 0.361179 13.3122 0.916464C12.5867 1.47183 11.4106 1.47183 10.6851 0.916464C9.95963 0.361179 8.78343 0.361179 8.05803 0.916464C7.33255 1.47183 6.15635 1.47183 5.43095 0.916464C4.95306 0.550723 4.2812 0.430994 3.66992 0.547011L7.59752 5.62743H16.3997L20.3274 0.547011C19.7161 0.430994 19.0442 0.550723 18.5664 0.916464C17.8409 1.47183 16.6647 1.47183 15.9393 0.916464Z" fill="#FFCE55"/>
</g>
<mask id="mask1_3062_8852" style="mask-type:luminance" maskUnits="userSpaceOnUse" x="1" y="5" width="22" height="19">
<path d="M1 5.62891H23V23.6912H1V5.62891Z" fill="white"/>
</mask>
<g mask="url(#mask1_3062_8852)">
<path fill-rule="evenodd" clip-rule="evenodd" d="M19.7856 22.4338C17.7954 23.4454 15.0443 23.6912 12 23.6912C7.49505 23.6912 3.62353 23.1476 1.92648 20.3916C1.33083 19.4321 1 18.1983 1 16.6289C1 16.4729 1.00466 16.3217 1.0094 16.1656C1.04723 15.2675 1.18907 14.3977 1.43485 13.5704C2.2243 10.8193 4.06319 8.51243 6.49291 7.10846C8.10957 6.16776 9.99095 5.62891 12 5.62891C17.7671 5.62891 22.4942 10.0676 22.9574 15.7118C22.9858 16.0144 23 16.3217 23 16.6289C23 19.659 21.7756 21.4269 19.7856 22.4338Z" fill="#FFCE55"/>
</g>
<path fill-rule="evenodd" clip-rule="evenodd" d="M18.0428 7.25327H5.9524C5.58927 7.25327 5.29492 6.95892 5.29492 6.59579V4.65936C5.29492 4.2963 5.58927 4.00195 5.9524 4.00195H18.0428C18.4059 4.00195 18.7003 4.2963 18.7003 4.65936V6.59579C18.7003 6.95892 18.4059 7.25327 18.0428 7.25327Z" fill="#E09105"/>
<path fill-rule="evenodd" clip-rule="evenodd" d="M15.9947 14.4474L16.4085 13.1395C16.5542 12.6786 16.2988 12.1868 15.8379 12.041C15.3772 11.8951 14.8852 12.1506 14.7395 12.6115L13.8416 15.4501L12.8533 12.5897C12.7331 12.2415 12.4076 12.0059 12.0392 12.0003C11.6735 11.9944 11.3385 12.2205 11.2077 12.5649L10.0996 15.4846L9.26619 12.6302C9.13073 12.1662 8.64462 11.8998 8.18072 12.0354C7.71669 12.1708 7.45034 12.6568 7.58587 13.1209L7.97315 14.4474H7.24735C6.83456 14.4474 6.5 14.782 6.5 15.1948C6.5 15.6076 6.83456 15.9422 7.24735 15.9422H8.40957L9.15113 18.4818C9.2565 18.8429 9.58089 19.0963 9.95678 19.1111C9.96843 19.1115 9.97994 19.1117 9.99152 19.1117C10.3538 19.1117 10.6802 18.8879 10.8096 18.5471L11.9874 15.444L13.0509 18.5223C13.1729 18.8755 13.5054 19.1117 13.8782 19.1117C13.882 19.1117 13.8859 19.1117 13.8897 19.1117C14.2672 19.1067 14.5989 18.8603 14.7127 18.5005L15.522 15.9422H16.7526C17.1654 15.9422 17.5 15.6076 17.5 15.1948C17.5 14.782 17.1654 14.4474 16.7526 14.4474H15.9947Z" fill="white"/>
</svg>

<svg xmlns="http://www.w3.org/2000/svg" width="24" height="24" fill="none" viewBox="0 0 24 24">
  <mask id="a" width="18" height="6" x="3" y="0" maskUnits="userSpaceOnUse" style="mask-type:luminance">
    <path fill="#fff" d="M3.67.5h16.657v5.127H3.67V.5Z"/>
  </mask>
  <g mask="url(#a)">
    <path fill="#FFCE55" fill-rule="evenodd" d="M15.94.916c-.726-.555-1.902-.555-2.628 0-.725.556-1.901.556-2.627 0-.725-.555-1.902-.555-2.627 0-.725.556-1.902.556-2.627 0C4.953.551 4.281.431 3.67.547l3.928 5.08H16.4l3.927-5.08c-.61-.116-1.283.004-1.76.37-.726.555-1.902.555-2.628 0Z" clip-rule="evenodd"/>
  </g>
  <mask id="b" width="22" height="19" x="1" y="5" maskUnits="userSpaceOnUse" style="mask-type:luminance">
    <path fill="#fff" d="M1 5.629h22V23.69H1V5.63Z"/>
  </mask>
  <g mask="url(#b)">
    <path fill="#FFCE55" fill-rule="evenodd" d="M19.786 22.434c-1.99 1.011-4.742 1.257-7.786 1.257-4.505 0-8.376-.543-10.074-3.3C1.331 19.433 1 18.199 1 16.63c0-.156.005-.307.01-.463.037-.899.18-1.768.425-2.596a10.976 10.976 0 0 1 5.058-6.462A10.915 10.915 0 0 1 12 5.628c5.767 0 10.494 4.44 10.957 10.084.029.302.043.61.043.917 0 3.03-1.224 4.798-3.214 5.805Z" clip-rule="evenodd"/>
  </g>
  <path fill="#E09105" fill-rule="evenodd" d="M18.043 7.253H5.953a.657.657 0 0 1-.658-.657V4.659c0-.363.294-.657.657-.657h12.09c.364 0 .658.294.658.657v1.937a.657.657 0 0 1-.657.657Z" clip-rule="evenodd"/>
  <path fill="#fff" fill-rule="evenodd" d="m15.995 14.447.414-1.307a.875.875 0 0 0-1.67-.529l-.897 2.84-.989-2.861a.875.875 0 0 0-1.645-.025l-1.108 2.92-.834-2.855a.875.875 0 1 0-1.68.49l.387 1.327h-.726a.747.747 0 1 0 0 1.495H8.41l.741 2.54a.875.875 0 0 0 1.659.065l1.177-3.103 1.064 3.078c.122.354.454.59.827.59h.012a.875.875 0 0 0 .823-.611l.809-2.559h1.23a.747.747 0 1 0 0-1.495h-.757Z" clip-rule="evenodd"/>
</svg>
